X: 396
T: Podrimsko Oro
O: Serbia
F: http://www.youtube.com/watch?v=urKWIvyymK8
F: http://www.youtube.com/watch?v=nIZpQFJ9ayQ
S: Ciga Ivon Despotovic, Radio-Televizija Beograd
M: 4/4
L: 1/8
Q: 1/4=210
K: Bm
%%MIDI gchord fzzzfzfz
|:"Bm"F2EF E^D=C2 |"Bm"B,2=C2^D2E2|"Bm" F2EF E^D=C2|"Bm"B,8    :|
|:B,2A,B, A,^G,F,2|^G,2A,2 B,2=C2 |B,FFE E^DD=C    |B,8        :|
|:B,=CCB, B,^DCB,  | B,=CCB, B,^DCB,| B,=CCB, B,^DCB, |B,=CCB,B,4 :|



